X: 20
T:Mazurka de Adelino Pichel
M:3/4
L:1/8
Q:200
S:Rep. Juajo Fernandez
R:Mazurka
K:C
c-BA-GA-B| c-GE-CE-G | F-EF-DB,-A | G-FE-DC2 | c-BA-GA-B| c-GE-CE-G | F-
EF-DB,-D | C2 C4 :|
CDEFDE | CDEFDE |CDEFGA |G2 F4| 
B,CDECD | B,CDECD |B,CDEFG | F2 E4 |
CDEFDE | CDEFDE |CDEFGA |G2 F4 | 
AGFGAF| GFEFGE | FEDEFD | E2 G4 |
 AGFGAF| GFEFGE | FEDFED | C2 "D.C."C4 ||

